X: 416
T: M'hera  [A]
%T: מִהֵרָה
M: C
L: 1/8
Z: 2009 John Chambers <jc:trillian.mit.edu>
S: printed MS of unknown origin
K: A
E \
| "A"(EA) AA A2 AA | (AG) FE "D"F2 "E7"E>E \
| "A"(EA) AA A2 AA | AG "(E)"FE "F#m"F3 :|
|: z \
| "Bm"B4 d2 c2 | B6 zA | "A"A A3 "E7"c2 B2 | "A"A6 z2 \
| "Bm"B4 d2 c2 | B6 zE | "A"A4 "E7"c2 B2 | "A"A6 z :|
